cached_logos/minikube.svg

<?xml version="1.0" encoding="UTF-8" standalone="no"?>
<svg   viewBox="-12.240000000000009 -3.3000000000000114 636.48 171.6" version="1.1" xmlns="http://www.w3.org/2000/svg" xmlns:xlink="http://www.w3.org/1999/xlink">
    <!-- Generator: Sketch 39.1 (31720) - http://www.bohemiancoding.com/sketch -->
    <title>logo</title>
    <desc>Created with Sketch.</desc>
    <defs>
        <polygon id="path-1" points="169.050447 0 0 0 0 164.6156 169.050447 164.6156"></polygon>
        <polygon id="path-3" points="0 164.616 611.093 164.616 611.093 0 0 0"></polygon>
    </defs>
    <g id="Page-1" stroke="none" stroke-width="1" fill="none" fill-rule="evenodd">
        <g id="logo">
            <g id="outline">
                <mask id="mask-2" fill="white">
                    <use xlink:href="#path-1"></use>
                </mask>
                <g id="Clip-2"></g>
                <path d="M84.6891,-0.0004 L84.6891,-0.0004 C82.3941,-0.0004 80.0981,0.5466 77.9121,1.5296 L22.6031,27.9826 C18.2301,30.0586 15.1701,33.8846 14.0771,38.5846 L0.4131,97.9386 C-0.6799,102.6386 0.4131,107.4486 3.4741,111.2746 L41.7311,158.8226 C44.6831,162.5396 49.1641,164.6156 53.8641,164.6156 L115.1861,164.6156 C119.8861,164.6156 124.3671,162.5396 127.3191,158.8226 L165.5761,111.2746 C168.6371,107.5576 169.7301,102.6386 168.6371,97.9386 L154.9731,38.5846 C153.8801,33.8846 150.8201,30.0586 146.4471,27.9826 L91.3571,1.5296 C89.2801,0.5466 86.9841,-0.0004 84.6891,-0.0004 M84.6891,5.1366 C86.2191,5.1366 87.7501,5.4646 89.1711,6.1206 L144.4801,32.4636 C147.3221,33.8846 149.5081,36.5086 150.1641,39.5686 L163.8271,98.9226 C164.5921,102.0926 163.8271,105.3716 161.7501,107.8856 L123.4931,155.4346 C121.5251,157.9486 118.4651,159.3696 115.2951,159.3696 L53.9741,159.3696 C50.8041,159.3696 47.7431,157.9486 45.7761,155.4346 L7.5181,107.8856 C5.5511,105.3716 4.7861,102.0926 5.4411,98.9226 L19.1051,39.5686 C19.8701,36.3986 21.9471,33.7756 24.7891,32.4636 L80.0981,6.0116 C81.5191,5.4646 83.1591,5.1366 84.6891,5.1366" id="Fill-1" fill="#326DE6" mask="url(#mask-2)"></path>
            </g>
            <path d="M52.6875,145.4897 C54.6485,147.9517 57.5895,149.3107 60.6595,149.3107 L108.7825,149.2257 C111.8535,149.2257 114.7635,147.7817 116.7245,145.4047 L146.0605,108.4697 C146.9075,107.3167 146.8135,105.0557 146.8135,103.1507 L146.8135,51.5737 L83.7835,87.8647 L83.7835,87.8637 L20.8135,51.6077 L20.8135,103.1507 C20.8135,105.0867 21.4975,106.9747 22.7555,108.5547 L52.6875,145.4897 Z" id="Fill-4" fill="#1FBFCF"></path>
            <polygon id="Fill-6" fill="#C9E9EC" points="83.7835 87.8645 146.8135 51.5745 83.7245 15.3055 20.8135 51.6055"></polygon>
            <path d="M98.8202,115.9015 C97.0132,117.0515 94.5482,116.7235 93.0692,114.9155 C92.5762,114.4225 92.4122,113.7655 92.2482,113.1085 L90.7692,86.3255 C102.1062,87.6405 112.4582,92.7335 120.3452,100.6205 L98.8202,115.9015 Z M76.4742,112.4505 C76.3092,114.7515 74.5022,116.7235 72.0372,116.7235 C71.3802,116.7235 70.5592,116.5585 70.0662,116.2305 L48.2122,100.6205 C54.9492,93.8835 63.3292,89.2835 72.6952,87.1475 C74.5022,86.8185 76.1452,86.4895 77.9532,86.1615 L76.4742,112.4505 Z M137.9262,101.4425 L139.5692,99.9635 L139.5692,99.6345 C139.5692,98.8135 139.7332,97.9915 140.3912,97.1705 C142.3622,95.3625 144.8272,93.8835 147.7842,92.0765 C148.2772,91.7475 148.7702,91.5835 149.2632,91.2545 C150.2492,90.7625 151.0712,90.2695 152.0572,89.6115 C152.2212,89.4475 152.5492,89.2835 152.8782,88.9545 C153.0422,88.7905 153.2072,88.7905 153.2072,88.6255 C155.5072,86.6545 156.0002,83.3685 154.3572,81.2325 C153.5352,80.0815 152.0572,79.4245 150.5782,79.4245 C149.2632,79.4245 148.1132,79.9175 146.9632,80.7395 L146.6342,81.0675 C146.3062,81.2325 146.1412,81.5605 145.8132,81.7245 C144.9912,82.5465 144.3342,83.2035 143.6772,84.0255 C143.3482,84.3535 143.0202,84.8465 142.5272,85.1755 C140.2262,87.6405 138.0902,89.6115 135.9542,91.0905 C135.4612,91.4195 134.9682,91.5835 134.4752,91.5835 C134.1472,91.5835 133.8182,91.5835 133.4892,91.4195 L133.1612,91.4195 L131.1892,92.7335 C129.0532,90.4335 126.7532,88.4615 124.4522,86.4895 C114.5942,78.7675 102.5992,74.0025 90.1122,72.8525 L89.9472,70.7165 L89.6192,70.3875 C89.1262,69.8945 88.4682,69.4015 88.3042,68.2515 C88.1402,65.6225 88.4682,62.6645 88.7972,59.3785 L88.7972,59.2145 C88.7972,58.7215 88.9612,58.0645 89.1262,57.5715 C89.2902,56.5855 89.4542,55.5995 89.6192,54.4495 L89.6192,53.4635 L89.6192,52.9705 C89.6192,50.0135 87.3182,47.5485 84.5252,47.5485 C83.2112,47.5485 81.8962,48.2055 80.9102,49.1915 C79.9242,50.1775 79.4312,51.4915 79.4312,52.9705 L79.4312,53.2995 L79.4312,54.2855 C79.4312,55.4355 79.5962,56.4215 79.9242,57.4065 C80.0892,57.8995 80.0892,58.3925 80.2532,59.0505 L80.2532,59.2145 C80.5822,62.5005 81.0742,65.4585 80.7462,68.0875 C80.5822,69.2375 79.9242,69.7305 79.4312,70.2235 C79.2672,70.3875 79.2672,70.3875 79.1032,70.5515 L78.9382,72.6875 C75.9812,73.0165 73.0232,73.3455 70.0662,74.0025 C57.4142,76.7955 46.2412,83.2035 37.5322,92.4055 L35.8892,91.2545 L35.5602,91.2545 C35.2322,91.2545 34.9032,91.4195 34.5752,91.4195 C34.0822,91.4195 33.5892,91.2545 33.0962,90.9265 C30.9602,89.4475 28.8242,87.3115 26.5232,84.8465 C26.1952,84.5185 25.8662,84.0255 25.3732,83.6965 C24.7162,82.8755 24.0592,82.2175 23.2372,81.3965 C23.0732,81.2325 22.7442,81.0675 22.4162,80.7395 C22.2512,80.5745 22.0872,80.5745 22.0872,80.4105 C21.1012,79.5885 19.7872,79.0955 18.4722,79.0955 C16.9932,79.0955 15.5152,79.7535 14.6932,80.9035 C13.0502,83.0395 13.5432,86.3255 15.8432,88.2975 C16.0082,88.2975 16.0082,88.4615 16.1722,88.4615 C16.5002,88.6255 16.6652,88.9545 16.9932,89.1185 C17.9792,89.7765 18.8012,90.2695 19.7872,90.7625 C20.2802,90.9265 20.7732,91.2545 21.2652,91.5835 C24.2232,93.3915 26.6882,94.8695 28.6592,96.6775 C29.4812,97.4985 29.4812,98.3205 29.4812,99.1415 L29.4812,99.4705 L31.1242,100.9495 C30.7952,101.4425 30.4672,101.7705 30.3032,102.2635 C28.3762,105.3085 26.7402,108.4835 25.3752,111.7495 L34.7422,123.3075 C36.0092,118.8345 37.8642,114.5135 40.3252,110.4795 L59.8782,127.8965 C61.6862,129.3745 61.8502,132.1685 60.3712,133.9755 C59.8782,134.6325 59.2212,135.1255 58.4002,135.2905 L47.1092,138.5685 L52.7192,145.4895 C54.6802,147.9525 57.6202,149.3105 60.6912,149.3105 L108.8142,149.2255 C111.8842,149.2255 114.7942,147.7825 116.7562,145.4045 L122.0232,138.7725 L110.4862,135.4545 C108.1862,134.7975 106.8712,132.4965 107.3642,130.1965 C107.5282,129.5395 107.8572,128.8825 108.3502,128.3895 L128.2322,110.4795 C130.6522,114.4665 132.5772,118.9485 133.9032,123.8155 L143.4572,111.7875 C141.9152,108.1885 140.0652,104.7325 137.9262,101.4425 L137.9262,101.4425 Z" id="Fill-8" fill="#326DE6"></path>
            <path d="M249.3714,95.8381 C249.3714,91.2311 248.7784,87.9661 247.5964,86.0461 C246.4104,84.1261 244.3794,83.1661 241.4994,83.1661 C240.6024,83.1661 239.6754,83.2141 238.7154,83.3111 C237.7554,83.4061 236.8274,83.5191 235.9324,83.6471 L235.9324,122.6221 L221.6274,122.6221 L221.6274,73.8551 C222.8424,73.5341 224.2674,73.1981 225.8994,72.8461 C227.5314,72.4951 229.2594,72.1741 231.0834,71.8861 C232.9074,71.5981 234.7794,71.3751 236.6994,71.2141 C238.6194,71.0551 240.5064,70.9741 242.3634,70.9741 C246.0114,70.9741 248.9714,71.4401 251.2434,72.3661 C253.5154,73.2951 255.3864,74.3991 256.8594,75.6781 C258.9064,74.2071 261.2594,73.0551 263.9154,72.2221 C266.5704,71.3911 269.0184,70.9741 271.2594,70.9741 C275.2914,70.9741 278.6034,71.5351 281.1954,72.6541 C283.7874,73.7751 285.8514,75.3591 287.3884,77.4061 C288.9234,79.4551 289.9794,81.8871 290.5564,84.7021 C291.1314,87.5201 291.4194,90.6541 291.4194,94.1101 L291.4194,122.6221 L277.1154,122.6221 L277.1154,95.8381 C277.1154,91.2311 276.5224,87.9661 275.3394,86.0461 C274.1544,84.1261 272.1234,83.1661 269.2434,83.1661 C268.4764,83.1661 267.4024,83.3591 266.0274,83.7421 C264.6504,84.1261 263.5154,84.6071 262.6194,85.1821 C263.0664,86.6551 263.3544,88.2061 263.4834,89.8381 C263.6104,91.4701 263.6754,93.2151 263.6754,95.0701 L263.6754,122.6221 L249.3714,122.6221 L249.3714,95.8381 Z" id="Fill-10" fill="#326DE6"></path>
            <mask id="mask-4" fill="white">
                <use xlink:href="#path-3"></use>
            </mask>
            <g id="Clip-13"></g>
            <path d="M301.595,122.622 L315.9,122.622 L315.9,72.126 L301.595,72.126 L301.595,122.622 Z M317.243,57.534 C317.243,60.159 316.394,62.223 314.7,63.726 C313.003,65.231 311.003,65.983 308.7,65.983 C306.395,65.983 304.394,65.231 302.7,63.726 C301.003,62.223 300.156,60.159 300.156,57.534 C300.156,54.91 301.003,52.847 302.7,51.342 C304.394,49.839 306.395,49.086 308.7,49.086 C311.003,49.086 313.003,49.839 314.7,51.342 C316.394,52.847 317.243,54.91 317.243,57.534 L317.243,57.534 Z" id="Fill-12" fill="#326DE6" mask="url(#mask-4)"></path>
            <path d="M326.554,73.8547 C328.986,73.1507 332.122,72.4957 335.962,71.8857 C339.802,71.2787 343.834,70.9737 348.058,70.9737 C352.345,70.9737 355.913,71.5357 358.762,72.6547 C361.61,73.7747 363.866,75.3587 365.531,77.4067 C367.194,79.4557 368.377,81.8867 369.082,84.7027 C369.785,87.5197 370.138,90.6547 370.138,94.1107 L370.138,122.6227 L355.834,122.6227 L355.834,95.8377 C355.834,91.2307 355.225,87.9657 354.01,86.0457 C352.794,84.1257 350.521,83.1667 347.195,83.1667 C346.17,83.1667 345.082,83.2137 343.93,83.3107 C342.779,83.4067 341.754,83.5187 340.859,83.6467 L340.859,122.6227 L326.554,122.6227 L326.554,73.8547 Z" id="Fill-14" fill="#326DE6" mask="url(#mask-4)"></path>
            <path d="M380.313,122.622 L394.618,122.622 L394.618,72.126 L380.313,72.126 L380.313,122.622 Z M395.961,57.534 C395.961,60.159 395.112,62.223 393.417,63.726 C391.721,65.231 389.721,65.983 387.417,65.983 C385.113,65.983 383.112,65.231 381.417,63.726 C379.721,62.223 378.873,60.159 378.873,57.534 C378.873,54.91 379.721,52.847 381.417,51.342 C383.112,49.839 385.113,49.086 387.417,49.086 C389.721,49.086 391.721,49.839 393.417,51.342 C395.112,52.847 395.961,54.91 395.961,57.534 L395.961,57.534 Z" id="Fill-15" fill="#326DE6" mask="url(#mask-4)"></path>
            <path d="M419.5765,90.26 C420.9825,88.733 422.4365,87.143 423.9395,85.489 C425.4405,83.834 426.8955,82.196 428.3035,80.572 C429.7105,78.949 431.0365,77.407 432.2825,75.944 C433.5285,74.482 434.5995,73.209 435.4955,72.126 L452.5045,72.126 C449.1105,76.024 445.7995,79.743 442.5675,83.286 C439.3355,86.831 435.8005,90.487 431.9605,94.254 C433.8805,95.986 435.8625,98.054 437.9125,100.457 C439.9595,102.862 441.9435,105.345 443.8635,107.91 C445.7845,110.475 447.5435,113.038 449.1435,115.603 C450.7435,118.167 452.0875,120.507 453.1765,122.622 L436.7285,122.622 C435.7055,120.954 434.5405,119.111 433.2305,117.089 C431.9215,115.069 430.5325,113.048 429.0615,111.028 C427.5925,109.007 426.0445,107.066 424.4155,105.206 C422.7865,103.346 421.1725,101.774 419.5765,100.489 L419.5765,122.622 L405.2715,122.622 L405.2715,50.43 L419.5765,48.126 L419.5765,90.26 Z" id="Fill-16" fill="#326DE6" mask="url(#mask-4)"></path>
            <path d="M502.1351,120.8948 C499.7011,121.5988 496.5671,122.2548 492.7271,122.8628 C488.8871,123.4698 484.8551,123.7748 480.6311,123.7748 C476.3421,123.7748 472.7741,123.1988 469.9271,122.0458 C467.0781,120.8948 464.8221,119.2788 463.1581,117.1988 C461.4931,115.1198 460.3101,112.6378 459.6071,109.7578 C458.9021,106.8778 458.5511,103.7098 458.5511,100.2538 L458.5511,72.1258 L472.8551,72.1258 L472.8551,98.5268 C472.8551,103.1338 473.4621,106.4628 474.6791,108.5098 C475.8941,110.5588 478.1661,111.5818 481.4941,111.5818 C482.5181,111.5818 483.6071,111.5348 484.7591,111.4388 C485.9101,111.3418 486.9341,111.2318 487.8301,111.1028 L487.8301,72.1258 L502.1351,72.1258 L502.1351,120.8948 Z" id="Fill-17" fill="#326DE6" mask="url(#mask-4)"></path>
            <path d="M545.1429,96.9905 C545.1429,87.7745 541.7489,83.1665 534.9669,83.1665 C533.4939,83.1665 532.0389,83.3585 530.5989,83.7425 C529.1589,84.1265 527.9909,84.6065 527.0949,85.1815 L527.0949,111.1985 C527.7979,111.3275 528.6939,111.4385 529.7829,111.5345 C530.8709,111.6305 532.0539,111.6785 533.3339,111.6785 C537.2379,111.6785 540.1819,110.3345 542.1659,107.6465 C544.1499,104.9585 545.1429,101.4065 545.1429,96.9905 M559.7349,97.3745 C559.7349,101.4065 559.1419,105.0535 557.9579,108.3185 C556.7739,111.5825 555.0619,114.3665 552.8229,116.6705 C550.5809,118.9735 547.8309,120.7505 544.5669,121.9985 C541.3029,123.2465 537.5899,123.8705 533.4309,123.8705 C531.7029,123.8705 529.8939,123.7895 528.0059,123.6305 C526.1189,123.4705 524.2629,123.2615 522.4389,123.0065 C520.6149,122.7505 518.8709,122.4465 517.2059,122.0945 C515.5409,121.7435 514.0699,121.3745 512.7899,120.9905 L512.7899,50.4295 L527.0949,48.1265 L527.0949,73.2785 C528.6939,72.5745 530.3589,72.0305 532.0859,71.6465 C533.8149,71.2615 535.6699,71.0705 537.6549,71.0705 C541.2389,71.0705 544.4069,71.6945 547.1589,72.9425 C549.9099,74.1905 552.2129,75.9665 554.0709,78.2705 C555.9259,80.5745 557.3339,83.3435 558.2939,86.5745 C559.2539,89.8065 559.7349,93.4065 559.7349,97.3745" id="Fill-18" fill="#326DE6" mask="url(#mask-4)"></path>
            <path d="M597.2689,92.2864 C597.2049,91.0714 596.9969,89.8864 596.6449,88.7344 C596.2919,87.5824 595.7479,86.5584 595.0129,85.6624 C594.2769,84.7664 593.3479,84.0304 592.2289,83.4544 C591.1089,82.8784 589.7159,82.5904 588.0529,82.5904 C586.4529,82.5904 585.0769,82.8634 583.9249,83.4064 C582.7729,83.9504 581.8129,84.6714 581.0449,85.5664 C580.2769,86.4634 579.6849,87.5034 579.2689,88.6864 C578.8519,89.8714 578.5489,91.0714 578.3569,92.2864 L597.2689,92.2864 Z M563.6689,97.7584 C563.6689,93.2794 564.3559,89.3584 565.7329,85.9984 C567.1089,82.6384 568.9159,79.8394 571.1569,77.5984 C573.3969,75.3584 575.9719,73.6624 578.8849,72.5104 C581.7959,71.3584 584.7899,70.7824 587.8609,70.7824 C595.0279,70.7824 600.6919,72.9744 604.8529,77.3584 C609.0119,81.7424 611.0929,88.1914 611.0929,96.7024 C611.0929,97.5344 611.0599,98.4464 610.9979,99.4384 C610.9329,100.4314 610.8679,101.3104 610.8049,102.0784 L578.3569,102.0784 C578.6759,105.0224 580.0519,107.3584 582.4849,109.0864 C584.9159,110.8144 588.1799,111.6784 592.2769,111.6784 C594.9009,111.6784 597.4759,111.4384 600.0049,110.9584 C602.5329,110.4784 604.5959,109.8874 606.1969,109.1824 L608.1169,120.7984 C607.3489,121.1824 606.3249,121.5664 605.0449,121.9504 C603.7639,122.3344 602.3399,122.6704 600.7729,122.9584 C599.2049,123.2464 597.5239,123.4864 595.7329,123.6784 C593.9409,123.8704 592.1479,123.9664 590.3569,123.9664 C585.8119,123.9664 581.8609,123.2944 578.5009,121.9504 C575.1409,120.6064 572.3569,118.7664 570.1489,116.4304 C567.9409,114.0954 566.3089,111.3274 565.2529,108.1264 C564.1969,104.9274 563.6689,101.4714 563.6689,97.7584 L563.6689,97.7584 Z" id="Fill-19" fill="#326DE6" mask="url(#mask-4)"></path>
        </g>
    </g>
</svg>

<svg viewBox="-12.22 -12.22 635.44 188.44" xmlns="http://www.w3.org/2000/svg" xmlns:xlink="http://www.w3.org/1999/xlink"><title>Minikube</title><defs><path id="a" d="M169.05 0H0v164.616h169.05z"/><path id="c" d="M0 164.616h611.093V0H0z"/></defs><g fill="none" fill-rule="evenodd"><mask id="b" fill="#fff"><use xlink:href="#a"/></mask><path fill="#326DE6" d="M84.69 0c-2.296 0-4.592.547-6.778 1.53L22.603 27.983c-4.373 2.076-7.433 5.902-8.526 10.602L.413 97.939c-1.093 4.7 0 9.51 3.061 13.336l38.257 47.548c2.952 3.717 7.433 5.793 12.133 5.793h61.322c4.7 0 9.181-2.076 12.133-5.793l38.257-47.548c3.061-3.717 4.154-8.636 3.061-13.336l-13.664-59.354c-1.093-4.7-4.153-8.526-8.526-10.602L91.357 1.53C89.28.547 86.984 0 84.69 0m0 5.137c1.53 0 3.061.328 4.482.984l55.31 26.343c2.841 1.42 5.027 4.045 5.683 7.105l13.663 59.354c.765 3.17 0 6.449-2.077 8.963l-38.257 47.549c-1.968 2.514-5.028 3.935-8.198 3.935h-61.32c-3.17 0-6.232-1.421-8.199-3.935l-38.258-47.55a10.948 10.948 0 0 1-2.077-8.962l13.664-59.354c.765-3.17 2.842-5.793 5.684-7.105L80.1 6.012c1.42-.547 3.06-.875 4.59-.875" mask="url(#b)"/><path fill="#1FBFCF" d="M52.688 145.49c1.96 2.462 4.901 3.82 7.971 3.82l48.123-.084c3.072 0 5.981-1.444 7.943-3.821l29.335-36.935c.847-1.153.754-3.414.754-5.32V51.575l-63.03 36.29-62.97-36.256v51.543c0 1.936.683 3.824 1.942 5.404l29.931 36.935z"/><path fill="#C9E9EC" d="M83.784 87.865l63.03-36.29-63.089-36.269-62.911 36.299z"/><path fill="#326DE6" d="M98.82 115.901c-1.807 1.15-4.272.823-5.75-.986-.494-.493-.658-1.15-.822-1.806L90.77 86.326a49.876 49.876 0 0 1 29.576 14.295L98.82 115.9zm-22.346-3.45c-.165 2.3-1.972 4.273-4.437 4.273-.657 0-1.478-.166-1.97-.493l-21.855-15.61c6.737-6.737 15.117-11.337 24.483-13.474 1.807-.329 3.45-.657 5.258-.986l-1.479 26.29zm61.452-11.008l1.643-1.48v-.328c0-.822.164-1.644.822-2.465 1.971-1.808 4.436-3.287 7.393-5.094.493-.328.986-.492 1.48-.822.985-.492 1.807-.985 2.793-1.642.164-.164.492-.328.821-.657.164-.165.33-.165.33-.33 2.3-1.97 2.792-5.257 1.15-7.392-.823-1.151-2.3-1.809-3.78-1.809-1.315 0-2.465.493-3.615 1.316l-.329.328c-.328.165-.493.493-.82.657-.823.822-1.48 1.479-2.137 2.3-.329.328-.657.822-1.15 1.15-2.3 2.466-4.437 4.437-6.573 5.916-.493.329-.986.493-1.479.493-.328 0-.657 0-.986-.165h-.328l-1.972 1.315c-2.136-2.3-4.436-4.272-6.737-6.244a65.618 65.618 0 0 0-34.34-13.637l-.165-2.136-.328-.33c-.493-.493-1.15-.986-1.315-2.136-.164-2.629.164-5.587.493-8.873v-.163c0-.494.164-1.15.33-1.644.163-.985.327-1.971.492-3.121v-1.48c0-2.957-2.3-5.422-5.094-5.422-1.314 0-2.629.657-3.615 1.642-.986.986-1.479 2.3-1.479 3.78v1.315c0 1.15.165 2.136.493 3.12.165.494.165.986.33 1.645v.163c.328 3.287.82 6.245.492 8.874-.164 1.15-.822 1.643-1.315 2.136l-.328.328-.165 2.135c-2.957.33-5.915.659-8.872 1.316-12.652 2.793-23.825 9.2-32.534 18.403l-1.643-1.152h-.329c-.328 0-.657.165-.985.165-.493 0-.986-.165-1.479-.492-2.136-1.48-4.272-3.616-6.573-6.08-.328-.328-.657-.822-1.15-1.15-.657-.822-1.314-1.48-2.136-2.3-.164-.165-.493-.33-.82-.657-.166-.165-.33-.165-.33-.33a5.74 5.74 0 0 0-3.615-1.314c-1.479 0-2.957.657-3.779 1.807-1.643 2.136-1.15 5.422 1.15 7.394.165 0 .165.165.33.165.327.163.492.492.82.656a24.65 24.65 0 0 0 2.794 1.645c.493.163.986.491 1.478.82 2.958 1.808 5.423 3.287 7.394 5.094.822.822.822 1.643.822 2.464v.33l1.643 1.478c-.329.493-.657.822-.82 1.314a63.531 63.531 0 0 0-4.929 9.486l9.367 11.559a51.61 51.61 0 0 1 5.583-12.829l19.553 17.418c1.808 1.478 1.972 4.271.493 6.079-.493.656-1.15 1.15-1.97 1.315l-11.292 3.278 5.61 6.92c1.961 2.463 4.901 3.821 7.972 3.821l48.123-.084c3.07 0 5.98-1.444 7.942-3.821l5.267-6.632-11.537-3.319c-2.3-.656-3.615-2.958-3.122-5.258.164-.656.493-1.314.986-1.806l19.882-17.91c2.42 3.986 4.345 8.468 5.671 13.335l9.554-12.028a68.368 68.368 0 0 0-5.53-10.345zm111.445-5.605c0-4.607-.593-7.872-1.775-9.792-1.186-1.92-3.217-2.88-6.097-2.88-.897 0-1.824.048-2.784.145a64.58 64.58 0 0 0-2.783.336v38.975h-14.305V73.855a97.308 97.308 0 0 1 4.272-1.009 95.565 95.565 0 0 1 5.184-.96 77.568 77.568 0 0 1 5.616-.672c1.92-.159 3.807-.24 5.664-.24 3.648 0 6.608.466 8.88 1.392 2.272.93 4.143 2.033 5.616 3.312 2.047-1.47 4.4-2.623 7.056-3.456 2.655-.83 5.103-1.248 7.344-1.248 4.032 0 7.344.561 9.936 1.68 2.592 1.121 4.656 2.705 6.193 4.752 1.535 2.05 2.591 4.481 3.168 7.296.575 2.818.863 5.952.863 9.408v28.512h-14.304V95.838c0-4.607-.593-7.872-1.776-9.792-1.185-1.92-3.216-2.88-6.096-2.88-.767 0-1.84.193-3.216.576-1.377.384-2.512.865-3.408 1.44.447 1.473.735 3.024.864 4.656.127 1.632.192 3.377.192 5.232v27.552h-14.304V95.838z"/><mask id="d" fill="#fff"><use xlink:href="#c"/></mask><path fill="#326DE6" d="M301.595 122.622H315.9V72.126h-14.305v50.496zm15.648-65.088c0 2.625-.849 4.689-2.543 6.192-1.697 1.505-3.697 2.257-6 2.257-2.305 0-4.306-.752-6-2.257-1.697-1.503-2.544-3.567-2.544-6.192 0-2.624.847-4.687 2.544-6.192 1.694-1.503 3.695-2.256 6-2.256 2.303 0 4.303.753 6 2.256 1.694 1.505 2.543 3.568 2.543 6.192zm9.311 16.321c2.432-.704 5.568-1.36 9.408-1.97 3.84-.606 7.872-.911 12.096-.911 4.287 0 7.855.562 10.704 1.68 2.848 1.12 5.104 2.705 6.769 4.753 1.663 2.049 2.846 4.48 3.551 7.296.703 2.817 1.056 5.952 1.056 9.408v28.512h-14.304V95.838c0-4.607-.609-7.872-1.824-9.792-1.216-1.92-3.489-2.88-6.815-2.88-1.025 0-2.113.048-3.265.145a53.143 53.143 0 0 0-3.071.336v38.976h-14.305V73.855zm53.759 48.767h14.305V72.126h-14.305v50.496zm15.648-65.088c0 2.625-.849 4.689-2.544 6.192-1.696 1.505-3.696 2.257-6 2.257s-4.305-.752-6-2.257c-1.696-1.503-2.544-3.567-2.544-6.192 0-2.624.848-4.687 2.544-6.192 1.695-1.503 3.696-2.256 6-2.256s4.304.753 6 2.256c1.695 1.505 2.544 3.568 2.544 6.192zm23.616 32.726a986.123 986.123 0 0 0 4.363-4.771 294.136 294.136 0 0 0 4.363-4.917 698.147 698.147 0 0 0 3.98-4.628 347.214 347.214 0 0 0 3.212-3.818h17.01a646.528 646.528 0 0 1-9.938 11.16 274.308 274.308 0 0 1-10.606 10.968c1.92 1.732 3.901 3.8 5.952 6.203a152.34 152.34 0 0 1 5.95 7.453 109.677 109.677 0 0 1 5.28 7.693c1.6 2.564 2.945 4.904 4.034 7.019h-16.449a266.676 266.676 0 0 0-3.498-5.533 135.162 135.162 0 0 0-4.168-6.061 82.06 82.06 0 0 0-4.647-5.822c-1.629-1.86-3.243-3.432-4.839-4.717v22.133h-14.305V50.43l14.305-2.304V90.26zm82.558 30.635c-2.434.704-5.568 1.36-9.408 1.968-3.84.607-7.872.912-12.096.912-4.289 0-7.857-.576-10.704-1.73-2.849-1.15-5.105-2.766-6.769-4.846-1.665-2.08-2.848-4.561-3.55-7.441-.706-2.88-1.057-6.048-1.057-9.504V72.126h14.304v26.4c0 4.608.607 7.937 1.824 9.984 1.215 2.049 3.487 3.072 6.815 3.072 1.024 0 2.113-.047 3.265-.143a53.242 53.242 0 0 0 3.071-.336V72.126h14.305v48.769zm43.008-23.905c0-9.215-3.394-13.823-10.176-13.823-1.473 0-2.928.192-4.368.576-1.44.383-2.608.864-3.504 1.439v26.016c.703.13 1.599.24 2.688.337a40.53 40.53 0 0 0 3.55.144c3.905 0 6.849-1.344 8.833-4.032 1.984-2.689 2.977-6.24 2.977-10.657m14.592.385c0 4.031-.593 7.678-1.777 10.944-1.184 3.263-2.896 6.047-5.135 8.352-2.242 2.302-4.992 4.08-8.256 5.328-3.264 1.248-6.977 1.872-11.136 1.872-1.728 0-3.537-.081-5.425-.24-1.887-.16-3.743-.37-5.567-.624a77.166 77.166 0 0 1-5.233-.913 54.905 54.905 0 0 1-4.416-1.103V50.428l14.305-2.303v25.152a26.788 26.788 0 0 1 4.99-1.632c1.73-.385 3.585-.576 5.57-.576 3.584 0 6.752.625 9.504 1.873 2.75 1.248 5.054 3.023 6.912 5.328 1.855 2.303 3.263 5.073 4.223 8.303.96 3.233 1.44 6.832 1.44 10.8m37.535-5.087a14.773 14.773 0 0 0-.624-3.552 8.902 8.902 0 0 0-1.632-3.072c-.736-.896-1.665-1.632-2.784-2.208-1.12-.576-2.513-.864-4.176-.864-1.6 0-2.976.273-4.128.816-1.152.544-2.112 1.265-2.88 2.16a9.684 9.684 0 0 0-1.776 3.12 20.43 20.43 0 0 0-.912 3.6h18.912zm-33.6 5.472c0-4.479.687-8.4 2.064-11.76 1.376-3.36 3.183-6.159 5.424-8.4a22.554 22.554 0 0 1 7.728-5.088 24.197 24.197 0 0 1 8.976-1.728c7.167 0 12.83 2.192 16.992 6.576 4.159 4.384 6.24 10.833 6.24 19.344 0 .832-.033 1.744-.095 2.736-.065.993-.13 1.872-.193 2.64h-32.448c.319 2.944 1.695 5.28 4.128 7.008 2.43 1.728 5.695 2.592 9.792 2.592 2.624 0 5.199-.24 7.728-.72 2.528-.48 4.59-1.07 6.192-1.776l1.92 11.616c-.768.384-1.792.768-3.072 1.152-1.281.384-2.705.72-4.272 1.008a68.222 68.222 0 0 1-5.04.72 50.442 50.442 0 0 1-5.376.288c-4.545 0-8.496-.672-11.856-2.016-3.36-1.344-6.144-3.184-8.352-5.52-2.208-2.335-3.84-5.103-4.896-8.304-1.056-3.199-1.584-6.655-1.584-10.368z" mask="url(#d)"/></g></svg>
